X:199
T:Tim Healey's
C:Gillian Frame and Padraig O'Neill
Z:robin.beech@mcgill.ca
R:jig
M:6/8
L:1/8
K:A
ECE A,CE | FDA, DEF | GAB edB | cAF E2F |
ECE A,CE | FDA, DEF | GAB edB | cAG A3 ::
e2e gab | agf e3 | d2d GAB | fed c3 |
e2e gab | agf e3 | d2d GAB | cAG A3 :|
